assets/logos/slack.svg

<svg width="126" height="126" viewBox="0 0 126 126" xmlns="http://www.w3.org/2000/svg" xmlns:xlink="http://www.w3.org/1999/xlink"><title>Untitled</title><defs><path id="a" d="M0 125.94h125.05V.95H0z"/></defs><g fill="none" fill-rule="evenodd"><path fill="#FFF" d="M51.477 58.232l5.387 16.082 16.708-5.596-5.386-16.082-16.709 5.596"/><mask id="b" fill="#fff"><use xlink:href="#a"/></mask><path fill="#FFF" mask="url(#b)" d="M51.477 58.232l5.387 16.082 16.708-5.596-5.386-16.082-16.709 5.596"/><path d="M98.083 74.181l-8.102 2.713 2.808 8.383a6.481 6.481 0 0 1-6.313 8.54 6.481 6.481 0 0 1-5.979-4.422l-2.808-8.384-16.708 5.595 2.808 8.384a6.482 6.482 0 0 1-12.292 4.117l-2.808-8.384-8.103 2.714a6.48 6.48 0 0 1-2.226.335 6.482 6.482 0 0 1-1.891-12.628l8.103-2.713-5.387-16.082-8.102 2.713a6.477 6.477 0 0 1-8.204-4.088 6.482 6.482 0 0 1 4.088-8.205l8.101-2.713-2.808-8.384a6.482 6.482 0 0 1 12.292-4.117l2.808 8.384 16.708-5.595-2.808-8.384a6.482 6.482 0 0 1 12.293-4.117l2.808 8.384 8.102-2.714a6.483 6.483 0 0 1 4.117 12.293l-8.102 2.713 5.386 16.083 8.103-2.714a6.482 6.482 0 0 1 4.116 12.293zm21.733-27.894C106.925 3.319 88.305-6.707 45.337 6.184 2.369 19.075-7.657 37.695 5.234 80.663c12.891 42.968 31.511 52.994 74.479 40.103 42.968-12.891 52.994-31.511 40.103-74.479z" fill="#FFF" mask="url(#b)"/></g></svg>

<?xml version="1.0" encoding="UTF-8"?>
<svg width="126px" height="126px" viewBox="0 0 126 126" version="1.1" xmlns="http://www.w3.org/2000/svg" xmlns:xlink="http://www.w3.org/1999/xlink">
    <!-- Generator: Sketch 40.3 (33839) - http://www.bohemiancoding.com/sketch -->
    <title>Untitled</title>
    <desc>Created with Sketch.</desc>
    <defs>
        <polygon id="path-1" points="0.000206209512 125.94 125.049794 125.94 125.049794 0.95020621 0.000206209512 0.95020621"></polygon>
    </defs>
    <g id="Page-1" stroke="none" stroke-width="1" fill="none" fill-rule="evenodd">
        <g id="slack_monochrome_white">
            <polyline id="Fill-8" fill="#FFFFFF" points="51.477 58.232 56.864 74.314 73.572 68.718 68.186 52.636 51.477 58.232"></polyline>
            <g id="Group-12">
                <mask id="mask-2" fill="white">
                    <use xlink:href="#path-1"></use>
                </mask>
                <g id="Clip-10"></g>
                <polyline id="Fill-9" fill="#FFFFFF" mask="url(#mask-2)" points="51.477 58.232 56.864 74.314 73.572 68.718 68.186 52.636 51.477 58.232"></polyline>
                <path d="M98.083,74.181 L89.981,76.894 L92.789,85.277 C93.926,88.672 92.096,92.346 88.701,93.482 C87.963,93.73 87.211,93.837 86.476,93.817 C83.828,93.749 81.386,92.051 80.497,89.395 L77.689,81.011 L60.981,86.606 L63.789,94.99 C64.926,98.384 63.096,102.058 59.701,103.195 C58.963,103.442 58.212,103.549 57.476,103.53 C54.829,103.461 52.387,101.763 51.497,99.107 L48.689,90.723 L40.586,93.437 C39.847,93.684 39.096,93.791 38.36,93.772 C35.713,93.703 33.271,92.005 32.381,89.349 C31.244,85.954 33.075,82.281 36.469,81.144 L44.572,78.431 L39.185,62.349 L31.083,65.062 C30.345,65.309 29.593,65.416 28.857,65.397 C26.211,65.328 23.768,63.63 22.879,60.974 C21.742,57.579 23.572,53.906 26.967,52.769 L35.068,50.056 L32.26,41.672 C31.123,38.278 32.953,34.605 36.348,33.467 C39.743,32.331 43.416,34.161 44.552,37.555 L47.36,45.939 L64.068,40.344 L61.26,31.96 C60.123,28.565 61.954,24.892 65.348,23.755 C68.742,22.618 72.416,24.449 73.553,27.843 L76.361,36.227 L84.463,33.513 C87.859,32.377 91.531,34.207 92.668,37.601 C93.805,40.996 91.974,44.669 88.58,45.806 L80.478,48.519 L85.864,64.602 L93.967,61.888 C97.362,60.752 101.035,62.582 102.171,65.976 C103.308,69.37 101.478,73.044 98.083,74.181 L98.083,74.181 Z M119.816,46.287 C106.925,3.319 88.305,-6.707 45.337,6.184 C2.369,19.075 -7.657,37.695 5.234,80.663 C18.125,123.631 36.745,133.657 79.713,120.766 C122.681,107.875 132.707,89.255 119.816,46.287 L119.816,46.287 Z" id="Fill-11" fill="#FFFFFF" mask="url(#mask-2)"></path>
            </g>
        </g>
    </g>
</svg>
